icons/type-icons/icons/x-office-presentation.svg

<?xml version="1.0" encoding="UTF-8"?><svg id="svg2" width="22" height="22" version="1.1" xmlns="http://www.w3.org/2000/svg" xmlns:cc="http://creativecommons.org/ns#" xmlns:dc="http://purl.org/dc/elements/1.1/" xmlns:rdf="http://www.w3.org/1999/02/22-rdf-syntax-ns#">
 <metadata id="metadata3874">
  <rdf:RDF>
   <cc:Work rdf:about="">
    <dc:format>image/svg+xml</dc:format>
    <dc:type rdf:resource="http://purl.org/dc/dcmitype/StillImage"/>
   </cc:Work>
  </rdf:RDF>
 </metadata>
 <path id="path4" d="m3 3v2h-1v14h18v-14h-1v-2zm1 1h14v1h-14zm-1 2h16v12h-16zm5 2v8l7-4z" color="#000000" color-rendering="auto" fill="#ff8b23" image-rendering="auto" shape-rendering="auto"/>
</svg>

<!-- Created with Inkscape (http://www.inkscape.org/) --><svg xmlns:dc="http://purl.org/dc/elements/1.1/" xmlns:cc="http://creativecommons.org/ns#" xmlns:rdf="http://www.w3.org/1999/02/22-rdf-syntax-ns#" xmlns:svg="http://www.w3.org/2000/svg" xmlns="http://www.w3.org/2000/svg" xmlns:sodipodi="http://sodipodi.sourceforge.net/DTD/sodipodi-0.dtd" xmlns:inkscape="http://www.inkscape.org/namespaces/inkscape" width="22" version="1.1" height="22" id="svg2" inkscape:version="0.91 r13725" sodipodi:docname="x-office-presentation.svg">
  <sodipodi:namedview pagecolor="#ffffff" bordercolor="#666666" borderopacity="1" objecttolerance="10" gridtolerance="10" guidetolerance="10" inkscape:pageopacity="0" inkscape:pageshadow="2" inkscape:window-width="709" inkscape:window-height="480" id="namedview7" showgrid="false" inkscape:zoom="10.727273" inkscape:cx="11" inkscape:cy="11" inkscape:window-x="0" inkscape:window-y="0" inkscape:window-maximized="0" inkscape:current-layer="svg2"/>
  <defs id="defs3871"/>
  <metadata id="metadata3874">
    <rdf:RDF>
      <cc:Work rdf:about="">
        <dc:format>image/svg+xml</dc:format>
        <dc:type rdf:resource="http://purl.org/dc/dcmitype/StillImage"/>
      </cc:Work>
    </rdf:RDF>
  </metadata>
  <path inkscape:connector-curvature="0" style="color:#000000;color-interpolation:sRGB;color-interpolation-filters:linearRGB;fill:#ff8b23;color-rendering:auto;image-rendering:auto;shape-rendering:auto;text-rendering:auto;fill-opacity:1" d="M 3,3 3,5 2,5 2,19 20,19 20,5 19,5 19,3 Z M 4,4 18,4 18,5 4,5 Z M 3,6 19,6 19,18 3,18 Z m 5,2 0,8 7,-4 z" id="path4" sodipodi:nodetypes="ccccccccccccccccccccccc"/>
</svg>
